src/assets/logo.svg

<svg width="377" height="469" viewBox="0 0 377 469" fill="none" xmlns="http://www.w3.org/2000/svg">
<path fillRule="evenodd" clipRule="evenodd" d="M159.151 29.2151L121.111 39.4076L125.188 54.6236L37.3157 78.1686C33.2271 69.9594 23.8008 65.4818 14.5993 67.9473C4.0949 70.7619 -2.13883 81.559 0.675857 92.0633C3.49055 102.568 14.2878 108.801 24.7922 105.987C33.9939 103.521 39.9185 94.9303 39.3544 85.7765L96.2051 70.5437C39.2527 106.651 7.34711 173.861 17.6541 242.441L1.36837 246.805L11.5613 284.844L27.8471 280.481C34.3283 296.973 43.1514 312.01 53.8206 325.305V424.446C53.8206 427.356 55.4361 428.811 58.6673 428.811H62.6711C66.0427 428.811 67.7285 427.356 67.7285 424.446V360.48H91.1191C94.3502 360.48 95.9658 359.025 95.9658 356.115V352.508C95.9658 349.598 94.3502 348.143 91.1191 348.143H67.7285V308.093H91.1191C94.3502 308.093 95.9658 306.638 95.9658 303.728V300.311C95.9658 297.401 94.3502 295.946 91.1191 295.946H58.6673C55.4361 295.946 53.8206 297.401 53.8206 300.311V312.209C46.53 301.867 40.3524 290.565 35.5067 278.428L49.601 274.652L39.4081 236.612L25.3137 240.389C18.8134 195.478 31.2505 151.243 57.3309 116.854V258.15C57.3309 261.988 60.067 263.907 65.5391 263.907H95.5167C105.271 263.907 113.479 261.655 120.141 257.149C126.803 252.477 130.134 246.636 130.134 239.628V112.974C130.134 105.966 126.803 100.209 120.141 95.7031C113.479 91.0307 105.271 88.6946 95.5167 88.6946H84.4862C97.2198 78.2965 111.661 69.6856 127.527 63.3511L131.304 77.447L169.344 67.2546L165.567 53.1588C212.571 46.3565 258.834 60.2971 293.844 88.9114C290.298 88.0994 286.443 87.6934 282.277 87.6934H279.422C269.429 87.6934 261.102 90.0295 254.441 94.7019C248.017 99.2073 244.805 104.964 244.805 111.973V131.246C244.805 137.087 245.638 142.343 247.303 147.015C248.969 151.688 251.824 156.444 255.868 161.283L289.058 204.335C292.151 208.173 293.697 213.513 293.697 220.355V241.13C293.697 243.299 292.626 245.135 290.485 246.636C288.344 248.138 285.727 248.889 282.634 248.889H279.065C275.972 248.889 273.355 248.138 271.214 246.636C269.073 245.135 268.002 243.299 268.002 241.13L268.716 210.843C268.716 207.005 265.98 205.086 260.508 205.086H253.013C247.541 205.086 244.805 207.005 244.805 210.843V240.629C244.805 247.638 248.017 253.478 254.441 258.15C261.102 262.656 269.429 264.909 279.422 264.909H282.634C292.626 264.909 300.835 262.656 307.258 258.15C313.92 253.478 317.251 247.638 317.251 240.629V223.108C317.251 216.6 316.537 211.344 315.11 207.339C313.92 203.334 310.827 198.328 305.831 192.32L274.069 151.02C270.262 146.515 268.359 142.009 268.359 137.504V111.472C268.359 109.303 269.429 107.467 271.571 105.966C273.712 104.464 276.329 103.713 279.422 103.713H282.634C285.727 103.713 288.344 104.464 290.485 105.966C292.626 107.467 293.697 109.303 293.697 111.472V146.014C293.697 149.852 296.433 151.771 301.905 151.771H308.686C314.158 151.771 316.894 149.852 316.894 146.014V111.973L316.894 111.883C327.457 124.726 336.197 139.32 342.606 155.372L328.512 159.149L338.704 197.188L352.799 193.411C358.042 229.633 350.966 265.415 334.35 295.946C334.308 295.946 334.266 295.946 334.223 295.946H297.557C294.326 295.946 292.71 297.401 292.71 300.311V303.348C292.71 306.259 294.326 307.714 297.557 307.714H308.936V424.446C308.936 427.356 310.551 428.811 313.783 428.811H317.997C321.228 428.811 322.844 427.356 322.844 424.446V327.044C328.004 320.765 332.712 314.138 336.937 307.219C338.286 306.602 338.995 305.409 339.064 303.639C358.193 270.558 366.445 231.19 360.459 191.359L376.744 186.996L366.551 148.956L350.265 153.32C324.9 88.7743 263.663 46.5215 196.286 43.7275L253.139 28.4941C257.228 36.7032 266.654 41.1808 275.855 38.7153C286.36 35.9007 292.594 25.1036 289.779 14.5993C286.964 4.09499 276.167 -2.13877 265.663 0.67581C256.461 3.14135 250.536 11.7323 251.1 20.8862L163.228 44.4311L159.151 29.2151ZM327.302 307.714H322.844V314.169C324.381 312.052 325.868 309.899 327.302 307.714ZM155.723 46.852L155.62 46.4696L153.581 38.8614L130.758 44.9768L134.942 60.5935L136.873 67.8005L159.697 61.685L157.766 54.4782L157.659 54.0776L155.723 46.852ZM345.364 162.787L345.364 162.788L352.99 160.744L352.99 160.744L360.982 158.602L367.098 181.426L344.274 187.541L338.158 164.718L345.364 162.787ZM19.0069 250.233L19.007 250.234L26.6334 248.19L26.6333 248.189L33.8387 246.259L39.9545 269.082L17.1306 275.198L11.0149 252.374L19.0069 250.233ZM282.171 16.6375C283.86 22.9401 280.12 29.4184 273.817 31.1071C267.514 32.7958 261.036 29.0556 259.347 22.753C257.658 16.4504 261.399 9.97215 267.701 8.28341C274.004 6.59468 280.482 10.3349 282.171 16.6375ZM22.7537 98.3788C29.0563 96.69 32.7965 90.2118 31.1077 83.9092C29.4189 77.6066 22.9405 73.8663 16.6379 75.5551C10.3353 77.2438 6.59504 83.7221 8.28386 90.0247C9.97268 96.3272 16.451 100.067 22.7537 98.3788ZM95.1598 247.888C98.2527 247.888 100.87 247.137 103.011 245.635C105.152 244.133 106.223 242.298 106.223 240.129V112.473C106.223 110.304 105.152 108.469 103.011 106.967C100.87 105.465 98.2527 104.714 95.1598 104.714H80.8848V247.888H95.1598ZM163.819 263.907C158.347 263.907 155.611 261.988 155.611 258.15V94.4516C155.611 90.6136 158.347 88.6946 163.819 88.6946H218.778C224.25 88.6946 226.986 90.6136 226.986 94.4516V98.957C226.986 102.795 224.25 104.714 218.778 104.714H179.165V157.528H218.778C224.25 157.528 226.986 159.447 226.986 163.285V168.041C226.986 171.879 224.25 173.798 218.778 173.798H179.165V258.15C179.165 261.988 176.31 263.907 170.6 263.907H163.819ZM172.904 463.107C176.837 466.524 181.754 468.232 187.655 468.232H189.341C195.381 468.232 200.298 466.524 204.091 463.107C207.884 459.564 209.781 455.135 209.781 449.821V282.128C209.781 276.814 207.884 272.448 204.091 269.031C200.298 265.488 195.381 263.717 189.341 263.717H187.655C181.754 263.717 176.837 265.488 172.904 269.031C168.97 272.448 167.004 276.814 167.004 282.128V449.821C167.004 455.135 168.97 459.564 172.904 463.107ZM193.977 454.376C192.712 455.515 191.167 456.084 189.341 456.084H187.233C185.407 456.084 183.862 455.515 182.597 454.376C181.473 453.237 180.911 451.845 180.911 450.2V281.749C180.911 280.104 181.473 278.712 182.597 277.573C183.862 276.434 185.407 275.865 187.233 275.865H189.341C191.167 275.865 192.712 276.434 193.977 277.573C195.241 278.712 195.873 280.104 195.873 281.749V450.2C195.873 451.845 195.241 453.237 193.977 454.376ZM113.231 428.811C109.999 428.811 108.384 427.356 108.384 424.446V300.311C108.384 297.401 109.999 295.946 113.231 295.946H130.721C136.621 295.946 141.468 297.717 145.261 301.26C149.194 304.677 151.161 309.042 151.161 314.357V358.203C151.161 361.493 150.318 364.593 148.633 367.503C147.087 370.287 144.348 372.375 140.414 373.767L152.636 423.876C152.777 424.256 152.847 424.762 152.847 425.395C152.847 427.673 151.442 428.811 148.633 428.811H144.207C141.398 428.811 139.642 427.546 138.939 425.015L127.138 374.336H122.081V424.446C122.081 427.356 120.465 428.811 117.234 428.811H113.231ZM131.142 362.568C132.969 362.568 134.444 362.125 135.568 361.24C136.691 360.227 137.253 358.899 137.253 357.254V313.977C137.253 312.332 136.621 310.941 135.357 309.802C134.092 308.663 132.547 308.093 130.721 308.093H122.081V362.568H131.142ZM228.457 428.811C225.225 428.811 223.61 427.356 223.61 424.446V300.311C223.61 297.401 225.225 295.946 228.457 295.946H233.725C236.534 295.946 238.361 297.148 239.204 299.552L263.859 386.864H264.069V300.311C264.069 297.401 265.685 295.946 268.916 295.946H273.131C276.362 295.946 277.977 297.401 277.977 300.311V424.446C277.977 427.356 276.362 428.811 273.131 428.811H268.073C265.263 428.811 263.437 427.609 262.594 425.205L237.729 337.514H237.518V424.446C237.518 427.356 235.902 428.811 232.671 428.811H228.457Z" fill="#020015"/>
</svg>

<svg xmlns="http://www.w3.org/2000/svg" width="377" height="469" fill="none"><path fill="#020015" fillRule="evenodd" d="m159.151 29.215-38.04 10.192 4.077 15.217-87.872 23.544C33.227 69.96 23.8 65.482 14.599 67.948 4.095 70.761-2.139 81.558.676 92.062c2.815 10.505 13.612 16.738 24.116 13.924 9.202-2.466 15.127-11.057 14.562-20.21l56.851-15.233C39.253 106.65 7.347 173.86 17.655 242.44l-16.287 4.364 10.193 38.039 16.286-4.363a172.132 172.132 0 0 0 25.974 44.824v99.141c0 2.91 1.615 4.365 4.846 4.365h4.004c3.372 0 5.057-1.455 5.057-4.365V360.48H91.12c3.231 0 4.847-1.455 4.847-4.365v-3.607c0-2.91-1.616-4.365-4.847-4.365H67.73v-40.05h23.39c3.231 0 4.847-1.455 4.847-4.365v-3.417c0-2.91-1.616-4.365-4.847-4.365H58.667c-3.23 0-4.846 1.455-4.846 4.365v11.898a164.344 164.344 0 0 1-18.314-33.781l14.094-3.776-10.193-38.04-14.094 3.777c-6.5-44.911 5.937-89.146 32.017-123.535V258.15c0 3.838 2.736 5.757 8.208 5.757h29.978c9.754 0 17.962-2.252 24.624-6.758 6.662-4.672 9.993-10.513 9.993-17.521V112.974c0-7.008-3.331-12.765-9.993-17.271-6.662-4.672-14.87-7.008-24.624-7.008h-11.03a164.284 164.284 0 0 1 43.04-25.344l3.777 14.096 38.04-10.193-3.777-14.095c47.004-6.803 93.267 7.138 128.277 35.752-3.546-.812-7.401-1.218-11.567-1.218h-2.855c-9.992 0-18.32 2.337-24.981 7.009-6.424 4.505-9.636 10.262-9.636 17.271v19.273c0 5.841.833 11.097 2.498 15.769 1.666 4.673 4.521 9.429 8.565 14.268l33.19 43.052c3.093 3.838 4.639 9.178 4.639 16.019v20.776c0 2.169-1.071 4.005-3.212 5.506-2.141 1.502-4.758 2.253-7.851 2.253h-3.569c-3.093 0-5.71-.751-7.851-2.253-2.141-1.501-3.212-3.337-3.212-5.506l.714-30.287c0-3.838-2.736-5.757-8.208-5.757h-7.495c-5.472 0-8.208 1.919-8.208 5.757v29.786c0 7.009 3.212 12.849 9.636 17.521 6.661 4.506 14.989 6.759 24.981 6.759h3.212c9.992 0 18.201-2.253 24.624-6.759 6.662-4.672 9.993-10.512 9.993-17.521v-17.521c0-6.508-.714-11.764-2.141-15.769-1.19-4.005-4.283-9.011-9.279-15.019l-31.762-41.3c-3.807-4.505-5.71-9.011-5.71-13.516v-26.032c0-2.169 1.071-4.005 3.212-5.506 2.141-1.502 4.758-2.253 7.851-2.253h3.212c3.093 0 5.71.751 7.851 2.253 2.141 1.501 3.212 3.337 3.212 5.506v34.542c0 3.838 2.736 5.757 8.208 5.757h6.781c5.472 0 8.208-1.919 8.208-5.757v-34.131a164.296 164.296 0 0 1 25.712 43.489l-14.094 3.777 10.192 38.039 14.095-3.777c5.243 36.222-1.832 72.004-18.449 102.535h-36.793c-3.231 0-4.847 1.455-4.847 4.365v3.037c0 2.911 1.616 4.366 4.847 4.366h11.379v116.732c0 2.91 1.616 4.365 4.847 4.365h4.214c3.231 0 4.847-1.455 4.847-4.365v-97.402a174.17 174.17 0 0 0 14.093-19.825c1.349-.617 2.058-1.81 2.127-3.58 19.129-33.081 27.381-72.449 21.395-112.28l16.285-4.364-10.193-38.039-16.286 4.364C324.9 88.774 263.663 46.521 196.286 43.727l56.853-15.233c4.089 8.21 13.515 12.687 22.717 10.221 10.504-2.814 16.738-13.611 13.923-24.116C286.964 4.095 276.167-2.139 265.663.676c-9.202 2.465-15.127 11.056-14.563 20.21l-87.872 23.545-4.077-15.216Zm168.151 278.499h-4.458v6.455a166.266 166.266 0 0 0 4.458-6.455ZM155.723 46.852l-.103-.383-2.039-7.608-22.823 6.116 4.184 15.617 1.931 7.206 22.824-6.115-1.931-7.207-.107-.4-1.936-7.226Zm189.641 115.935v.001l7.626-2.044 7.992-2.142 6.116 22.824-22.824 6.115-6.116-22.823 7.206-1.931ZM19.007 250.233v.001l7.627-2.044v-.001l7.205-1.93 6.116 22.823-22.824 6.116-6.116-22.824 7.992-2.141ZM282.17 16.637c1.689 6.303-2.051 12.781-8.354 14.47-6.303 1.689-12.781-2.052-14.47-8.354-1.689-6.303 2.052-12.78 8.354-14.47 6.303-1.688 12.781 2.052 14.47 8.354ZM22.754 98.38c6.302-1.689 10.043-8.167 8.354-14.47-1.69-6.302-8.167-10.043-14.47-8.354-6.303 1.689-10.043 8.167-8.354 14.47 1.689 6.302 8.167 10.042 14.47 8.354ZM95.16 247.888c3.093 0 5.71-.751 7.851-2.253 2.141-1.502 3.212-3.337 3.212-5.507V112.473c0-2.169-1.071-4.004-3.212-5.506-2.141-1.502-4.758-2.253-7.851-2.253H80.885v143.174H95.16Zm68.659 16.019c-5.472 0-8.208-1.919-8.208-5.757V94.452c0-3.838 2.736-5.757 8.208-5.757h54.959c5.472 0 8.208 1.919 8.208 5.757v4.505c0 3.838-2.736 5.757-8.208 5.757h-39.613v52.814h39.613c5.472 0 8.208 1.919 8.208 5.757v4.756c0 3.838-2.736 5.757-8.208 5.757h-39.613v84.352c0 3.838-2.855 5.757-8.565 5.757h-6.781Zm9.085 199.2c3.934 3.417 8.85 5.125 14.751 5.125h1.686c6.04 0 10.957-1.708 14.75-5.125 3.794-3.543 5.69-7.972 5.69-13.287V282.128c0-5.314-1.896-9.68-5.69-13.097-3.793-3.543-8.71-5.314-14.75-5.314h-1.686c-5.901 0-10.817 1.771-14.751 5.314-3.934 3.417-5.9 7.783-5.9 13.097V449.82c0 5.315 1.966 9.744 5.9 13.287Zm21.073-8.731c-1.265 1.139-2.81 1.708-4.636 1.708h-2.108c-1.826 0-3.371-.569-4.636-1.708-1.124-1.139-1.685-2.531-1.685-4.176V281.749c0-1.645.561-3.037 1.685-4.176 1.265-1.139 2.81-1.708 4.636-1.708h2.108c1.826 0 3.371.569 4.636 1.708 1.264 1.139 1.896 2.531 1.896 4.176V450.2c0 1.645-.632 3.037-1.896 4.176Zm-80.746-25.565c-3.232 0-4.847-1.455-4.847-4.365V300.311c0-2.91 1.615-4.365 4.847-4.365h17.49c5.9 0 10.747 1.771 14.54 5.314 3.934 3.417 5.9 7.782 5.9 13.097v43.846c0 3.29-.843 6.39-2.528 9.3-1.546 2.784-4.285 4.872-8.219 6.264l12.222 50.109c.141.38.211.886.211 1.519 0 2.277-1.405 3.416-4.214 3.416h-4.426c-2.809 0-4.565-1.265-5.268-3.796l-11.8-50.679h-5.058v50.11c0 2.91-1.615 4.365-4.847 4.365h-4.003Zm17.911-66.243c1.827 0 3.302-.443 4.426-1.328 1.123-1.013 1.685-2.341 1.685-3.986v-43.277c0-1.645-.632-3.037-1.896-4.175-1.265-1.139-2.81-1.709-4.636-1.709h-8.64v54.475h9.061Zm97.315 66.243c-3.231 0-4.847-1.455-4.847-4.365V300.311c0-2.91 1.616-4.365 4.847-4.365h5.268c2.809 0 4.636 1.202 5.479 3.606l24.655 87.312h.21v-86.553c0-2.91 1.616-4.365 4.847-4.365h4.215c3.231 0 4.846 1.455 4.846 4.365v124.135c0 2.91-1.615 4.365-4.846 4.365h-5.058c-2.809 0-4.636-1.202-5.479-3.606l-24.865-87.691h-.211v86.932c0 2.91-1.616 4.365-4.847 4.365h-4.214Z" clipRule="evenodd"/></svg>
